X:130
T: ICH GING IM NAECHTLICH STILLEN HAINE
N: B0162
O: Europa, Mitteleuropa, Deutschland, Rheinland; Untertaunus; Wetzlar
R: Ballade, Romanze
M: 4/4
L: 1/8
K: G
DG | G3GGGBG | BAA2z2
FG | A3AAAGA | B2dcB2
d2 | A3dAAGE | D6
D2 | c3BAGFG | BGG2z2
GB | d2BdedcB | cAA4
e2 | dFGAB2A2 | G4z2

